ufans-frontend-package/public/assets/images/preview.svg

<svg width="123" height="100" viewBox="0 0 123 100" fill="none" xmlns="http://www.w3.org/2000/svg">
<g clip-path="url(#clip0_1_6)">
<path fill-rule="evenodd" clip-rule="evenodd" d="M61.38 31.76C65.6089 31.7596 69.7071 33.2254 72.9765 35.9077C76.2459 38.59 78.4841 42.3229 79.3099 46.4704C80.1357 50.6178 79.498 54.9233 77.5054 58.6534C75.5127 62.3834 72.2885 65.3072 68.382 66.9266C64.4754 68.546 60.1283 68.7609 56.0811 67.5346C52.0339 66.3083 48.537 63.7167 46.1863 60.2014C43.8356 56.6861 42.7763 52.4645 43.1891 48.2558C43.6019 44.0471 45.4611 40.1116 48.45 37.12C50.1461 35.4192 52.1615 34.0702 54.3804 33.1504C56.5993 32.2306 58.978 31.7581 61.38 31.76V31.76ZM114.28 76.76C114.28 75.6196 114.733 74.5259 115.539 73.7194C116.346 72.913 117.44 72.46 118.58 72.46C119.72 72.46 120.814 72.913 121.621 73.7194C122.427 74.5259 122.88 75.6196 122.88 76.76V95.1C122.88 96.2414 122.427 97.3361 121.621 98.1441C120.815 98.9521 119.721 99.4074 118.58 99.41H118.19H92.86C91.7594 99.3568 90.7214 98.8821 89.9612 98.0844C89.2011 97.2866 88.7771 96.2269 88.7771 95.125C88.7771 94.0231 89.2011 92.9634 89.9612 92.1656C90.7214 91.3679 91.7594 90.8932 92.86 90.84H114.28V76.72V76.76ZM122.88 22.76C122.88 23.9004 122.427 24.9942 121.621 25.8006C120.814 26.607 119.72 27.06 118.58 27.06C117.44 27.06 116.346 26.607 115.539 25.8006C114.733 24.9942 114.28 23.9004 114.28 22.76V8.59H92.86C91.7594 8.53681 90.7214 8.06214 89.9612 7.26438C89.2011 6.46661 88.7771 5.40693 88.7771 4.305C88.7771 3.20307 89.2011 2.14339 89.9612 1.34563C90.7214 0.547859 91.7594 0.0731862 92.86 0.02H118.19H118.58C119.72 0.0226411 120.812 0.476524 121.618 1.28236C122.423 2.08819 122.877 3.18038 122.88 4.32V22.69V22.76ZM8.6 22.69C8.6 23.8304 8.14697 24.9242 7.34056 25.7306C6.53415 26.537 5.44043 26.99 4.3 26.99C3.15957 26.99 2.06585 26.537 1.25944 25.7306C0.453034 24.9242 0 23.8304 0 22.69V4.3C0.00264107 3.16038 0.456524 2.06819 1.26236 1.26236C2.06819 0.456524 3.16038 0.00264107 4.3 0L4.69 0H30C31.1006 0.0531862 32.1386 0.527859 32.8988 1.32563C33.6589 2.12339 34.0829 3.18307 34.0829 4.285C34.0829 5.38693 33.6589 6.44661 32.8988 7.24437C32.1386 8.04214 31.1006 8.51681 30 8.57H8.6V22.67V22.69ZM0 76.72C0 75.5796 0.453034 74.4858 1.25944 73.6794C2.06585 72.873 3.15957 72.42 4.3 72.42C5.44043 72.42 6.53415 72.873 7.34056 73.6794C8.14697 74.4858 8.6 75.5796 8.6 76.72V90.82H30C31.1006 90.8732 32.1386 91.3479 32.8988 92.1456C33.6589 92.9434 34.0829 94.0031 34.0829 95.105C34.0829 96.2069 33.6589 97.2666 32.8988 98.0644C32.1386 98.8621 31.1006 99.3368 30 99.39H4.69H4.3C3.16211 99.3874 2.07142 98.9349 1.26587 98.1312C0.460323 97.3275 0.00527723 96.2379 0 95.1L0 76.72ZM6.92 47.43C9.7889 43.9515 12.8964 40.677 16.22 37.63C29.22 25.82 43.95 19.51 59.22 19.19C74.49 18.87 90 24.54 104.67 36.64C108.7 39.9722 112.486 43.588 116 47.46C116.571 48.0899 116.907 48.897 116.952 49.7456C116.998 50.5942 116.75 51.4327 116.25 52.12C112.337 57.71 107.654 62.7195 102.34 67C91.2622 75.9408 77.4755 80.8525 63.24 80.93C48.8751 80.8871 34.8854 76.3404 23.24 67.93C17.0258 63.4991 11.4677 58.2137 6.73 52.23C6.17947 51.5407 5.89567 50.6761 5.93057 49.7946C5.96546 48.9131 6.31671 48.0737 6.92 47.43V47.43ZM21.18 43.07C18.796 45.2521 16.5358 47.5657 14.41 50C18.275 54.4854 22.6705 58.4847 27.5 61.91C37.8953 69.4248 50.383 73.4953 63.21 73.55C75.7939 73.4701 87.9769 69.1152 97.76 61.2C101.765 57.9776 105.368 54.2843 108.49 50.2C105.816 47.407 102.981 44.7725 100 42.31C86.73 31.37 72.8 26.31 59.34 26.54C45.88 26.77 32.82 32.47 21.18 43.07ZM56.23 35.29C57.6323 35.29 59.003 35.7058 60.169 36.4849C61.3349 37.2639 62.2437 38.3712 62.7803 39.6668C63.3169 40.9623 63.4573 42.3879 63.1838 43.7632C62.9102 45.1385 62.2349 46.4018 61.2434 47.3934C60.2518 48.3849 58.9885 49.0602 57.6132 49.3338C56.2379 49.6073 54.8123 49.4669 53.5168 48.9303C52.2212 48.3937 51.1139 47.4849 50.3349 46.319C49.5558 45.153 49.14 43.7823 49.14 42.38C49.1426 40.5004 49.8905 38.6986 51.2195 37.3695C52.5486 36.0405 54.3504 35.2926 56.23 35.29V35.29Z" fill="#6661E7"/>
</g>
<defs>
<clipPath id="clip0_1_6">
<rect width="122.88" height="99.41" fill="white"/>
</clipPath>
</defs>
</svg>

<svg xmlns="http://www.w3.org/2000/svg" xmlns:xlink="http://www.w3.org/1999/xlink" width="122.88" height="99.41" viewBox="0 0 122.88 99.41">
  <defs>
    <clipPath id="clip-path">
      <rect id="Rectangle_1" data-name="Rectangle 1" width="122.88" height="99.41" fill="#e44499"/>
    </clipPath>
  </defs>
  <g id="preview" clip-path="url(#clip-path)">
    <path id="Path_1" data-name="Path 1" d="M61.38,31.76a18.24,18.24,0,1,1-7,1.39,18.24,18.24,0,0,1,7-1.39Zm52.9,45a4.3,4.3,0,1,1,8.6,0V95.1a4.31,4.31,0,0,1-4.3,4.31H92.86a4.29,4.29,0,0,1,0-8.57h21.42Zm8.6-54a4.3,4.3,0,0,1-8.6,0V8.59H92.86a4.29,4.29,0,0,1,0-8.57h25.72a4.309,4.309,0,0,1,4.3,4.3V22.76ZM8.6,22.69a4.3,4.3,0,1,1-8.6,0V4.3A4.31,4.31,0,0,1,4.3,0H30a4.29,4.29,0,0,1,0,8.57H8.6ZM0,76.72a4.3,4.3,0,1,1,8.6,0v14.1H30a4.29,4.29,0,0,1,0,8.57H4.3A4.31,4.31,0,0,1,0,95.1ZM6.92,47.43a97.178,97.178,0,0,1,9.3-9.8c13-11.81,27.73-18.12,43-18.44S90,24.54,104.67,36.64A109.7,109.7,0,0,1,116,47.46a3.7,3.7,0,0,1,.25,4.66A72.477,72.477,0,0,1,102.34,67a62.8,62.8,0,0,1-39.1,13.93,68.67,68.67,0,0,1-40-13A81.151,81.151,0,0,1,6.73,52.23a3.67,3.67,0,0,1,.19-4.8Zm14.26-4.36A86.752,86.752,0,0,0,14.41,50,73.112,73.112,0,0,0,27.5,61.91,61.4,61.4,0,0,0,63.21,73.55,55.49,55.49,0,0,0,97.76,61.2a64.021,64.021,0,0,0,10.73-11A99.349,99.349,0,0,0,100,42.31c-13.27-10.94-27.2-16-40.66-15.77S32.82,32.47,21.18,43.07Zm35.05-7.78a7.1,7.1,0,1,1-5.01,2.079,7.1,7.1,0,0,1,5.01-2.079Z" fill="#e44499" fill-rule="evenodd"/>
  </g>
</svg>
